X:17
T:New Castle Hornpipe. JBs.017
T:Kirkgate Hornpipe,aka. JBs.017
S:Jas.Blackshaw MS, 1837, N.Shropshire
Z:T. Weatherall 2006
M:4/4
L:1/4
Q:1/2=90
A:North Shropshire
R:.Hornpipe
K:C
câ€™/g/|eeef/d/|ccce/f/|gga/g/f/e/|f/e/f/d/ c/B/A/G/|!
eee/g/d/f/|gggd/c/|B/d/B/G/ A/c/A/F/|GGG:|!
|:d/e/|fffd/e/|f/e/f/d/ c/B/A/G/|ggge/g/|a/b/câ€™/a/ g/f/e/d/|!
aaa/b/câ€™/a/|gggf/e/|f/g/a/f/ e/d/c/B/|ccc:|

